X: 275
T: The boys of Comanore
C: anon.
O: Ireland
B: Francis O'Neill: "The Dance Music of Ireland" (1907) no. 275
R: Double jig
Z: Transcribed by Frank Nordberg - http://www.musicaviva.com
F: http://www.musicaviva.com/abc/tunes/ireland/oneill-1001/oneill-1001-027
5.abc
M: 6/8
L: 1/8
K: D
(A/G/)|F2E FDD|Ddc dAG|F2E FDD|FAF GFE|FEG FED|Ddc dAG|FAG FGE|FDD D2:|
||(F/G/)|ABc d2e|fdf ecA|ABd efg|faf gfe|ABc d2e|fdf ecA|AGF EAG|FDD D2:|


